icons/desktop/12/svg/globe-12.svg

<svg width="12" height="12" viewBox="0 0 12 12" fill="none" xmlns="http://www.w3.org/2000/svg">
<path fill-rule="evenodd" clip-rule="evenodd" d="M6 0C9.31371 0 12 2.68629 12 6C12 9.31371 9.31371 12 6 12C2.68629 12 0 9.31371 0 6C0 2.68629 2.68629 0 6 0ZM6 6.3252C5.43098 6.3252 4.83861 6.33461 4.22461 6.35742C4.30998 7.96112 4.96906 9.41099 5.99902 10.5107C7.02904 9.41137 7.68762 7.96272 7.77344 6.35938C7.19866 6.338 6.60723 6.3252 6 6.3252ZM2.97656 6.4209C2.42682 6.45578 1.86201 6.50101 1.2832 6.55859C1.49404 8.35813 2.71024 9.84978 4.35547 10.457C3.55527 9.29865 3.05553 7.91573 2.97656 6.4209ZM9.02148 6.4209C8.94257 7.91576 8.44451 9.29864 7.64453 10.457C9.29001 9.84968 10.5053 8.35753 10.7158 6.55762C10.1716 6.50355 9.60632 6.458 9.02148 6.4209ZM7.64453 1.54199C8.37054 2.59304 8.84721 3.82909 8.98828 5.16602C9.57793 5.20208 10.1483 5.24775 10.6982 5.30078C10.442 3.56428 9.24686 2.13328 7.64453 1.54199ZM4.35547 1.54199C2.75339 2.13319 1.55725 3.56367 1.30078 5.2998C1.88486 5.24341 2.45497 5.20093 3.00977 5.16699C3.15081 3.82969 3.62908 2.5933 4.35547 1.54199ZM5.99902 1.48828C5.08516 2.46385 4.46634 3.71551 4.27832 5.10547C4.87272 5.0846 5.44708 5.0752 6 5.0752C6.58826 5.0752 7.1621 5.08582 7.7207 5.10547C7.53265 3.71512 6.91333 2.46394 5.99902 1.48828Z" fill="black"/>
</svg>

<!-- This Source Code Form is subject to the terms of the Mozilla Public
   - License, v. 2.0. If a copy of the MPL was not distributed with this
   - file, You can obtain one at http://mozilla.org/MPL/2.0/. -->
<svg xmlns="http://www.w3.org/2000/svg" width="12" height="12" fill="context-fill" fill-opacity="context-fill-opacity" viewBox="0 0 12 12">
    <path fill-rule="evenodd" d="M6 0a6 6 0 1 1 0 12A6 6 0 0 1 6 0m0 6.325q-.854 0-1.775.032a6.57 6.57 0 0 0 1.774 4.154 6.57 6.57 0 0 0 1.774-4.152A48 48 0 0 0 6 6.325m-3.023.096q-.825.052-1.694.138a4.75 4.75 0 0 0 3.072 3.898 7.8 7.8 0 0 1-1.378-4.036m6.044 0a7.8 7.8 0 0 1-1.376 4.036 4.75 4.75 0 0 0 3.07-3.9q-.816-.08-1.694-.136M7.645 1.542a7.8 7.8 0 0 1 1.343 3.624q.885.055 1.71.135a4.76 4.76 0 0 0-3.053-3.759m-3.29 0A4.76 4.76 0 0 0 1.301 5.3a49 49 0 0 1 1.709-.133 7.8 7.8 0 0 1 1.345-3.625M6 1.488a6.57 6.57 0 0 0-1.72 3.617 49 49 0 0 1 3.442 0 6.57 6.57 0 0 0-1.722-3.617" clip-rule="evenodd" />
</svg>
